public/icon/icon-phone.svg

<svg width="14" height="14" viewBox="0 0 14 14" fill="none" xmlns="http://www.w3.org/2000/svg">
<path d="M13.9996 10.4817V12.5893C14.0004 12.7849 13.9602 12.9786 13.8817 13.1578C13.8031 13.3371 13.6879 13.498 13.5435 13.6303C13.399 13.7626 13.2285 13.8633 13.0428 13.9259C12.8571 13.9886 12.6603 14.0119 12.465 13.9943C10.299 13.7594 8.2183 13.0207 6.39023 11.8376C4.68945 10.7589 3.24748 9.31984 2.16674 7.62243C0.977102 5.78969 0.236769 3.70306 0.00571348 1.53156C-0.011877 1.33729 0.0112568 1.1415 0.0736417 0.956639C0.136027 0.77178 0.236296 0.601911 0.368066 0.457846C0.499835 0.313781 0.660218 0.198678 0.839003 0.119863C1.01779 0.0410494 1.21106 0.000251806 1.40651 6.81111e-05H3.51825C3.85987 -0.00328744 4.19105 0.117444 4.45007 0.33976C4.70909 0.562076 4.87827 0.870806 4.92609 1.20841C5.01522 1.88287 5.18052 2.54511 5.41883 3.18249C5.51354 3.43394 5.53403 3.70721 5.47789 3.96993C5.42175 4.23265 5.29132 4.4738 5.10207 4.66481L4.20809 5.55701C5.21016 7.31581 6.6693 8.77206 8.43159 9.77214L9.32556 8.87994C9.51695 8.69106 9.75858 8.56089 10.0218 8.50486C10.2851 8.44883 10.5589 8.46929 10.8108 8.5638C11.4495 8.80164 12.113 8.96661 12.7888 9.05557C13.1308 9.10371 13.4431 9.2756 13.6663 9.53855C13.8895 9.8015 14.0081 10.1372 13.9996 10.4817Z" fill="#ABB910"/>
</svg>

<svg width="14" height="14" fill="none" xmlns="http://www.w3.org/2000/svg"><path d="M14 10.482v2.107a1.403 1.403 0 01-.957 1.337 1.41 1.41 0 01-.578.068 13.95 13.95 0 01-6.075-2.156 13.714 13.714 0 01-4.223-4.216 13.885 13.885 0 01-2.161-6.09A1.402 1.402 0 01.839.12 1.41 1.41 0 011.407 0h2.111a1.41 1.41 0 011.408 1.208 9.06 9.06 0 00.493 1.974 1.402 1.402 0 01-.317 1.483l-.894.892a11.252 11.252 0 004.224 4.215l.894-.892a1.409 1.409 0 011.485-.316 9.054 9.054 0 001.978.492 1.408 1.408 0 011.21 1.426z" fill="#ABB910"/></svg>
